X: 305624
M: 6/8
L: 1/8
K: Eb
eBg eBG | E3 E2F/E/ | E2F/E/ E2F/E/ | B2A F2B |\
eBg eBG | E3 E2c/B/ | B2c/B/ BAF | E3 z2 H|]
e |\
fdB B2f | gee e2g | a2f g2e | fff f2e |\
fdB B2f | gee e2g | b2g a2f | e3 "^D.C."z2 |]
ef_g Bcd | ef_g Bcd | e2e f2f | a2_g f2B |\
ef_g Bcd | ef_g Bcd | e_gf agf | e3 "^D.C."z2 |]


